X: 248
T:On the Strand
M:6/8
L:1/8
C:Emer Mayock
R:jig
D:Emer Mayock: Playground
Z:Devin McCabe
K:BMin
FGA BfB|e2A cBA|FGA BfB|eAc efg|
!f2B afe|fBb ace|fdB eAc|dBG EFG:|
!f2B A2B|~F2E FAB|~f2B gaf|e2A (3Bcd e|
!fBa fec|e2f edc|dBf ece|f2e fga|
!fBB ABB|~F2E FAB|~f2B gaf|e2A (3Bcd e|
!fBa fec|e2f edc|dBf ece|f2e fga|
!:baf abf-|f2e fga|bfa fed|e2d cBA|
!BFd cAe|dBf efg|fBe AcA|1d2c BAF:|2d2c BAG||
